src/assets/images/connectors/trustwallet.svg

<svg width="100" height="100" viewBox="0 0 100 100" fill="none" xmlns="http://www.w3.org/2000/svg">
<path fill-rule="evenodd" clip-rule="evenodd" d="M3.40626 17.0625C0 23.75 0 32.5 0 50C0 67.5 0 76.25 3.40626 82.9376C6.40626 88.8126 11.1875 93.5937 17.0625 96.5937C23.75 100 32.5 100 50 100C67.5 100 76.25 100 82.9376 96.5937C88.8126 93.5937 93.5937 88.8126 96.5937 82.9376C100 76.25 100 67.5 100 50C100 32.5 100 23.75 96.5937 17.0625C93.5937 11.1875 88.8126 6.40626 82.9376 3.40626C76.25 0 67.5 0 50 0C32.5 0 23.75 0 17.0625 3.40626C11.1875 6.40626 6.40626 11.1875 3.40626 17.0625ZM74.9532 26.9687C75.8282 26.9687 76.6563 27.3282 77.2658 27.9376C77.875 28.5626 78.2189 29.4063 78.2032 30.2655C78.0471 39.5782 77.6876 46.7032 77.0158 52.3437C76.3595 57.9845 75.375 62.1718 73.8908 65.5626C72.8908 67.8282 71.6563 69.7032 70.2032 71.2968C68.25 73.4063 66.0158 74.9376 63.5782 76.3908C62.5361 77.0139 61.4526 77.6292 60.3161 78.2747C57.8911 79.6518 55.2247 81.1661 52.2032 83.1876C51.1095 83.9218 49.6876 83.9218 48.5939 83.1876C45.5261 81.1424 42.8245 79.6095 40.3774 78.2213C39.8332 77.9126 39.3016 77.6111 38.7813 77.3126C35.9221 75.6563 33.3439 74.0782 31.0939 71.7968C29.5939 70.2968 28.2971 68.4687 27.2658 66.2968C25.8595 63.3905 24.9064 59.875 24.2033 55.3282C23.2657 49.25 22.797 41.2968 22.6251 30.2655C22.6095 29.4063 22.9376 28.5626 23.547 27.9376C24.1564 27.3282 25.0001 26.9687 25.8751 26.9687H27.2189C31.3595 26.9845 40.5 26.5782 48.4063 20.4219C49.5782 19.5156 51.2189 19.5156 52.3908 20.4219C60.2971 26.5782 69.4376 26.9845 73.5939 26.9687H74.9532ZM67.6876 63.4845C68.7032 61.3905 69.5471 58.5 70.1876 54.3437C70.9532 49.375 71.4221 42.625 71.6408 33.4376C66.7658 33.2968 58.3908 32.3595 50.4063 26.9845C42.4221 32.3437 34.0471 33.2813 29.1876 33.4376C29.3595 41.0313 29.7032 46.9376 30.25 51.5782C30.875 56.8595 31.7658 60.4376 32.875 62.9532C33.6095 64.625 34.4221 65.8282 35.3908 66.8905C36.6876 68.3126 38.3282 69.4845 40.5626 70.8282C41.4895 71.3842 42.5113 71.9626 43.6237 72.5924C45.6055 73.7139 47.8745 74.9982 50.4063 76.6095C52.8916 75.0245 55.1279 73.7534 57.0866 72.64C57.6771 72.3045 58.2421 71.9832 58.7813 71.6718C61.5313 70.0937 63.5626 68.7813 65.0782 67.25C66.0939 66.2032 66.9221 65.0626 67.6876 63.4845Z" fill="#3375BB"/>
</svg>

<svg xmlns="http://www.w3.org/2000/svg" width="100" height="100" fill="none"><path fill="#3375BB" fill-rule="evenodd" d="M3.406 17.063C0 23.75 0 32.5 0 50s0 26.25 3.406 32.938a31.34 31.34 0 0 0 13.657 13.656C23.75 100 32.5 100 50 100s26.25 0 32.938-3.406a31.34 31.34 0 0 0 13.656-13.656C100 76.25 100 67.5 100 50s0-26.25-3.406-32.937A31.34 31.34 0 0 0 82.938 3.406C76.25 0 67.5 0 50 0S23.75 0 17.063 3.406A31.34 31.34 0 0 0 3.406 17.063m71.547 9.906c.875 0 1.703.36 2.313.969.609.625.953 1.468.937 2.328-.156 9.312-.515 16.437-1.187 22.078-.657 5.64-1.641 9.828-3.125 13.219-1 2.265-2.235 4.14-3.688 5.734-1.953 2.11-4.187 3.64-6.625 5.094-1.042.623-2.125 1.238-3.262 1.884-2.425 1.377-5.091 2.891-8.113 4.913a3.23 3.23 0 0 1-3.61 0c-3.067-2.046-5.769-3.579-8.216-4.967q-.815-.462-1.596-.908c-2.859-1.657-5.437-3.235-7.687-5.516-1.5-1.5-2.797-3.328-3.828-5.5-1.406-2.906-2.36-6.422-3.063-10.969-.937-6.078-1.406-14.031-1.578-25.063a3.26 3.26 0 0 1 .922-2.327 3.31 3.31 0 0 1 2.328-.97h1.344c4.14.017 13.281-.39 21.187-6.546a3.26 3.26 0 0 1 3.985 0c7.906 6.156 17.047 6.563 21.203 6.547zm-7.265 36.515c1.015-2.093 1.86-4.984 2.5-9.14.765-4.969 1.234-11.719 1.453-20.906-4.875-.141-13.25-1.079-21.235-6.454-7.984 5.36-16.359 6.297-21.218 6.454.172 7.593.515 13.5 1.062 18.14.625 5.281 1.516 8.86 2.625 11.375.734 1.672 1.547 2.875 2.516 3.938 1.297 1.422 2.937 2.593 5.172 3.937.926.556 1.948 1.135 3.06 1.764 1.983 1.122 4.252 2.406 6.783 4.017 2.486-1.584 4.722-2.856 6.68-3.969q.887-.502 1.695-.968c2.75-1.578 4.782-2.89 6.297-4.422 1.016-1.047 1.844-2.187 2.61-3.766" clip-rule="evenodd"/></svg>
